src/loggor/resolve.svg

<svg height="60" preserveAspectRatio="xMidYMid meet" viewBox="0 0 45 44.999999" width="60" xmlns="http://www.w3.org/2000/svg" zoomAndPan="magnify"><path d="m22.648438 12.300781c-5.710938 0-10.347657 4.636719-10.347657 10.347657 0 5.710937 4.636719 10.351562 10.347657 10.351562 5.710937 0 10.351562-4.640625 10.351562-10.351562 0-5.710938-4.640625-10.347657-10.351562-10.347657zm0 .898438c5.226562 0 9.453124 4.226562 9.453124 9.449219 0 5.226562-4.226562 9.453124-9.453124 9.453124-5.222657 0-9.449219-4.226562-9.449219-9.453124 0-5.222657 4.226562-9.449219 9.449219-9.449219zm0 1.800781c-1.734376 0-3.148438 1.335938-3.148438 2.976562 0 1.597657 1.476562 3.40625 2.859375 4.566407.085937.070312.1875.105469.289063.105469.105468 0 .207031-.035157.289062-.105469 1.382812-1.160157 2.863281-2.96875 2.863281-4.566407 0-1.640624-1.414062-2.976562-3.152343-2.976562zm-4.304688 7.652344c-.703125.019531-1.359375.152344-1.882812.453125-.671876.382812-1.152344 1.015625-1.355469 1.777343-.21875.808594-.09375 1.703126.339843 2.449219.601563 1.03125 1.679688 1.617188 2.757813 1.617188.492187 0 .984375-.121094 1.4375-.378907 1.394531-.796874 2.234375-2.988281 2.550781-4.769531.039063-.214843-.082031-.425781-.289062-.5-1.070313-.386719-2.382813-.679687-3.558594-.648437zm8.613281 0c-1.175781-.03125-2.488281.261718-3.558593.648437-.207032.074219-.332032.285157-.292969.5.320312 1.78125 1.15625 3.972657 2.554687 4.769531.449219.257813.941406.378907 1.433594.378907 1.082031 0 2.15625-.585938 2.761719-1.617188.433593-.746093.558593-1.640625.339843-2.449219-.203124-.761718-.683593-1.394531-1.355468-1.777343-.523438-.300781-1.175782-.433594-1.882813-.453125zm0 0" fill="#dcdcdc"/></svg>

<svg xmlns="http://www.w3.org/2000/svg" xmlns:xlink="http://www.w3.org/1999/xlink" width="60" zoomAndPan="magnify" viewBox="0 0 45 44.999999" height="60" preserveAspectRatio="xMidYMid meet" version="1.0"><path fill="#dcdcdc" d="M 22.648438 12.300781 C 16.9375 12.300781 12.300781 16.9375 12.300781 22.648438 C 12.300781 28.359375 16.9375 33 22.648438 33 C 28.359375 33 33 28.359375 33 22.648438 C 33 16.9375 28.359375 12.300781 22.648438 12.300781 Z M 22.648438 13.199219 C 27.875 13.199219 32.101562 17.425781 32.101562 22.648438 C 32.101562 27.875 27.875 32.101562 22.648438 32.101562 C 17.425781 32.101562 13.199219 27.875 13.199219 22.648438 C 13.199219 17.425781 17.425781 13.199219 22.648438 13.199219 Z M 22.648438 15 C 20.914062 15 19.5 16.335938 19.5 17.976562 C 19.5 19.574219 20.976562 21.382812 22.359375 22.542969 C 22.445312 22.613281 22.546875 22.648438 22.648438 22.648438 C 22.753906 22.648438 22.855469 22.613281 22.9375 22.542969 C 24.320312 21.382812 25.800781 19.574219 25.800781 17.976562 C 25.800781 16.335938 24.386719 15 22.648438 15 Z M 18.34375 22.652344 C 17.640625 22.671875 16.984375 22.804688 16.460938 23.105469 C 15.789062 23.488281 15.308594 24.121094 15.105469 24.882812 C 14.886719 25.691406 15.011719 26.585938 15.445312 27.332031 C 16.046875 28.363281 17.125 28.949219 18.203125 28.949219 C 18.695312 28.949219 19.1875 28.828125 19.640625 28.570312 C 21.035156 27.773438 21.875 25.582031 22.191406 23.800781 C 22.230469 23.585938 22.109375 23.375 21.902344 23.300781 C 20.832031 22.914062 19.519531 22.621094 18.34375 22.652344 Z M 26.957031 22.652344 C 25.78125 22.621094 24.46875 22.914062 23.398438 23.300781 C 23.191406 23.375 23.066406 23.585938 23.105469 23.800781 C 23.425781 25.582031 24.261719 27.773438 25.660156 28.570312 C 26.109375 28.828125 26.601562 28.949219 27.09375 28.949219 C 28.175781 28.949219 29.25 28.363281 29.855469 27.332031 C 30.289062 26.585938 30.414062 25.691406 30.195312 24.882812 C 29.992188 24.121094 29.511719 23.488281 28.839844 23.105469 C 28.316406 22.804688 27.664062 22.671875 26.957031 22.652344 Z M 26.957031 22.652344 " fill-opacity="1" fill-rule="nonzero"/></svg>
